!!!COM: Anon.
!!!OCL: Francis James Child
!!!OPR: The English and Scottish Popular Ballads
!!!OVM: Vol. 1
!!!ONB: Ballad No. 2, Tune No. 1
!!!ONM: No. 1
!!!PDT: 1882
!!!YEM: Public domain.
**kern
*M4/4
*g:
{4d
=1
4.d
8d
4b-
4a
=2
4g
8d
8d
4c}
4r
!! Second phrase:
=3
{2d
2d
=4
4c
8d
8f
4g}
!! Third phrase:
{8b-
8cc
=5
4.dd
8dd
4b-
4a
=6
8g
[8d
4d]
4c}
!! Fourth phrase:
{8B-
8c
=7
2.d
8c
4B-
4c
=8
4d
4g
4g}
====
*-
!!!OCY: Britain; England
!!!PPP: Boston
!!!ODT: <1882
!!!AFR: folk song
!!!AST: monophony
!!!AMT: simple quadruple
!!!SCA: Child Collection
!!!AIN: vox
!!!EEV: 1.0
!!!RDT: 1987 June
!!!YER: 1994 August 10
!!!VTS: 652652838
